contributed-vectors/adblocker_browser.svg

<svg xmlns="http://www.w3.org/2000/svg" xml:space="preserve" style="fill-rule:evenodd;clip-rule:evenodd;stroke-linejoin:round;stroke-miterlimit:2" viewBox="0 0 192 192"><path d="m96 22.43 52.022 21.548L169.57 96l-21.548 52.022L96 169.57l-52.022-21.548L22.43 96l21.548-52.022L96 22.43Z" style="fill:#ff837d" transform="scale(1.18745) rotate(-22.5 50.329 126.517)"/><path d="M65.782 23.047h60.436l42.735 42.735v60.436l-42.735 42.735H65.782l-42.735-42.735V65.782l42.735-42.735Zm2.1 5.071h56.236l39.764 39.764v56.236l-39.764 39.764H67.882l-39.764-39.764V67.882l39.764-39.764Z" style="fill:#fff" transform="matrix(1.038 0 0 1.038 -3.648 -3.648)"/><text style="font-family:&quot;Now-Black&quot;,&quot;Now&quot;;font-weight:900;font-size:60.49px;fill:#fff" transform="matrix(.8896 0 0 .95432 58.5 101.383)">AD</text><text style="font-family:&quot;Now-Black&quot;,&quot;Now&quot;;font-weight:900;font-size:20px;fill:#fff" transform="matrix(1.11534 0 0 1.1965 40.79 128.137)">BLOCKER</text></svg>

<?xml version="1.0" encoding="UTF-8" standalone="no"?>
<!DOCTYPE svg PUBLIC "-//W3C//DTD SVG 1.1//EN" "http://www.w3.org/Graphics/SVG/1.1/DTD/svg11.dtd">
<svg width="100%" height="100%" viewBox="0 0 192 192" version="1.1" xmlns="http://www.w3.org/2000/svg" xmlns:xlink="http://www.w3.org/1999/xlink" xml:space="preserve" xmlns:serif="http://www.serif.com/" style="fill-rule:evenodd;clip-rule:evenodd;stroke-linejoin:round;stroke-miterlimit:2;">
    <g transform="matrix(1.10633,0,0,1.10633,-10.2077,-10.2077)">
        <g id="Layer1">
            <g>
                <g transform="matrix(0.991624,-0.410744,0.410744,0.991624,-38.6274,40.2355)">
                    <path d="M96,22.43L148.022,43.978L169.57,96L148.022,148.022L96,169.57L43.978,148.022L22.43,96L43.978,43.978L96,22.43Z" style="fill:rgb(255,131,125);"/>
                </g>
                <g transform="matrix(0.938236,0,0,0.938236,5.9293,5.9293)">
                    <path d="M65.782,23.047L126.218,23.047L168.953,65.782L168.953,126.218L126.218,168.953L65.782,168.953L23.047,126.218L23.047,65.782L65.782,23.047ZM67.882,28.118L124.118,28.118L163.882,67.882L163.882,124.118L124.118,163.882L67.882,163.882L28.118,124.118L28.118,67.882L67.882,28.118Z" style="fill:white;"/>
                </g>
                <g transform="matrix(0.862603,0,0,0.862603,13.1902,18.2399)">
                    <g transform="matrix(0.932171,0,0,1,56.7052,95.787)">
                        <text x="0px" y="0px" style="font-family:'Now-Black', 'Now';font-weight:900;font-size:60.49px;fill:white;">AD</text>
                    </g>
                    <g transform="matrix(1.16872,0,0,1.25376,38.1483,123.821)">
                        <g>
                            <text x="0px" y="0px" style="font-family:'Now-Black', 'Now';font-weight:900;font-size:20px;fill:white;">BLOCKER</text>
                        </g>
                    </g>
                </g>
            </g>
        </g>
    </g>
</svg>
